X:1
T:Her Bright Smile Haunts Me Still
M:3/2
L:1/4
K:F
 C F G| A3 G F D| C2 z2 D E| F d3d/2-c/2A/2-G/2| G2 z2 F G| A3 A G|\
F/2-D/2| D2 z2 F3/2 G/2| A C A3G/2-F/2| F2 z2 A c| d3 d c3/2 d/2| A2 z3 D|\
 F3 F G G| A2 z2 A c| d3 d c d| A2 z3 D| F3 F G G| A2 z3 A/2A/2| A3 A G F|\
 D2- F3 G| A C A3 G| F3||
